X:1
T:Title
%%score 1 { ( 2 5 ) | ( 3 4 ) }
L:1/8
M:6/8
K:Ab
V:1 treble nm="Choir Aahs"
V:2 treble nm="Grand Piano"
V:5 treble 
V:3 bass 
V:4 bass 
V:1
 z3 z[Q:1/4=78] c>d- | d/cB=A/- A/BEc/- | c/BA3/2- A3/2 z/ z/ E/ | E/FAd/- d/cBA/- | %4
 A/B/- B2- B/e-<ed/- | d/ccc/- c/cde/- | e/e/- e2- e/d-<dB/- | B/AAA/- A/GFG/- | %8
[M:15/16] G/A-A3/2-A3/2- A3- |[M:9/8] A3 z3 z3 | z9 | z9 | z9 | z9 | z9 | z9 |[M:2/4] z4 | z4 |] %18
V:2
 z3 z [CE]>[DF]- | [DF]/[CE]DC/- C<.[B,D] z/ E/- | E/[B,D]C3/2- C3/2 z/ z | z6 | z6 | %5
 z3 z/ .[A,C]3/2 z | z6 | z3 z/ D/- D2- |[M:15/16] D3/2 z3/2 z3/2 z3 | %9
[M:9/8] z3 z/ [EB]/- [EB]2- [EB]3/2 z/ z | z3 z/ c/- c2- c3- | c3 z/ e/- e2- e3/2 z/ z | %12
 z3 z/ [EB]/- [EB]2- [EB]3- | [EB]/E/- E2- E/[CA]/- [CA]2- [CA]3/2 z/ z | %14
 z3 z/ [Fd]/- [Fd]2- [Fd]3- | [Fd]3 z/[K:bass] [CE]/- [CE]2- [CE]3/2[K:treble] z/ z |[M:2/4] z4 | %17
 z4 |] %18
V:3
 z3 z A,,>A,,- | A,,3/2B,=A,/- A,/ z/ z/ E,C/- | C3/2A,3/2- A,3/2 z/ z | %3
 z/ [A,,F,A,]-<[A,,F,A,] z/ z/ [E,A,]-[B,,E,A,]C,/- | C,3 z/ B,-<B,D/- | %5
 D/A,,/- A,,2- A,,/ z/ z/ B,C/- | C/A,/- A,2- A,/D,,-<D,,D,,/- | %7
 D,,/E,,-<E,, z/ z z/[K:treble] FG/- | %8
[M:15/16] G/[K:bass][A,,E,]-[A,,E,]3/2-[A,,E,]3/2- [A,,E,]3- | %9
[M:9/8] [A,,E,]/[A,,A,]/- [A,,A,]2- [A,,A,]/[E,G,]-<[E,G,]E,/- E,/E,[E,=A,E][E,B,E]/- | %10
 [E,B,E]/[E,B,E][E,=A,E][E,G,E]/- [E,G,E]/[K:treble]E/- E2- E3- | %11
 E/[A,CE]/- [A,CE]2- [A,CE]/[K:bass]E-<E-[A,E]/- [A,E-]/[A,E][A,B,E][A,E]/- | %12
 [A,E]/[A,,A,][B,,G,][C,A,]/- [C,A,]/[E,G,]-<[E,G,]E,/- E,/E,/- E,2- | %13
 E,/[E,G,]/- [E,G,]2- [E,G,]/[A,,A,]-<[A,,A,]A,,/- A,,/A,,[A,,E,][A,,E,]/- | %14
 [A,,E,]/[A,,A,][A,,A,][A,,A,]/- [A,,A,]/[D,A,]-<[D,A,]D,/- D,/D,/- D,2- | %15
 D,/D,/- D,2- D,/E,-<E,E,/- E,/E,[E,A,C][E,A,C]/- | %16
[M:2/4] [E,A,C]/[E,G,D][E,B,D]/- [E,B,D]/[E,G,D][A,,A,]/- | [A,,A,]4 |] %18
V:4
 x6 | z/ E,/- E,2- E,/E,,/- E,,2- | E,,/[A,,E,]/- [A,,E,]2- [A,,E,]3/2 z/ z | z3 z/ .A,,3/2 z | %4
 z/ E,/- E,2- E,2- E,/ z/ | z3 z/ A,,,/- A,,,2- | A,,,6 | z3 z/ E,-<E,[K:treble] z/ | %8
[M:15/16] x/[K:bass] x7 |[M:9/8] x9 | z3 z/[K:treble] _A,-<A, z/ z3 | %11
 z3 z/[K:bass] [A,C]-<[A,C] z/ z3 | x9 | x9 | x9 | x9 |[M:2/4] x4 | x4 |] %18
V:5
 x6 | x6 | x6 | z/ D-<D z/ z/ CD[A,E]/- | [A,E]/[G,B,E]/- [G,B,E]2- [G,B,E]/[EG]-<[EG][EG]/- | %5
 [EG]/[CEA]/- [CEA]2- [CEA]/_G-[DG-][EG]/- | [EG]/[C=G]/- [CG]2- [CG]/[A,DF]-<[A,DF][DFB]/- | %7
 [DFB]/[CEA]-<[CEA] z/ z/ .G3/2 z |[M:15/16] z/ [CA]-[CA]3/2-[CA]3/2- [CA]3- | %9
[M:9/8] [CA]/[Ec]/- [Ec]2- [Ec]/ z/ z z/ G,/- G,/G,cd/- | d/dcB/- B/ z/ z z/ A,/- A,/A,/- A,2- | %11
 A,/A/- A2- A/ z/ z z/ C/- C/Cdc/- | c/[Ec][EB][EA]/- [EA]/ z/ z z/ G,/- G,/G,/- G,2- | %13
 G,2 z/ D/- D/ z/ z z/ E,/- E,/E,[CA][CA]/- | %14
 [CA]/[Ec][EB][_Gc]/- [Gc]/ z/ z z/ A,/- A,/A,/- A,2- | %15
 A,/[A,DF]/- [A,DF]2- [A,DF]/[K:bass]A,-<A,A,/- A,/A,[K:treble]EE/- |[M:2/4] E/EG/- G/B[CA]/- | %17
 [CA]4 |] %18

